austria/municipalities/40709.svg

<svg enable-background="new 0 0 100 124" height="124" viewBox="0 0 100 124" width="100" xmlns="http://www.w3.org/2000/svg"><path d="m49.986 72.128h-48.113c0 26.586 21.502 49.822 48.088 49.822.009 0 .017-.001.025-.001z" fill="#d50b2b" stroke="#000" stroke-width="2"/><path d="m49.986 1.915h48.114v70.213c0 26.586-21.502 49.822-48.088 49.822-.009 0-.017-.001-.025-.001v-120.034z" fill="#02739f"/><path d="m1.873 1.915h48.114v36.879h-48.114z" fill="#d50b2b"/><path d="m1.873 38.794h48.114v33.333h-48.114z" fill="#fff" stroke="#000" stroke-width="2"/><path d="m1.873 1.915h96.227v70.213c0 26.586-21.553 49.822-48.139 49.822s-48.088-23.236-48.088-49.822z" fill="none" stroke="#000" stroke-width="2"/><path d="m49.986 1.915v120.035" fill="none" stroke="#000" stroke-width="2"/><g fill="#f5c801" stroke="#272525"><path d="m55.484 85.5h33.5v10h-33.5z"/><path d="m55.484 69.5h33.5v10h-33.5z"/><path d="m69.486 12.35v57.15h5.495v-57.15c2.12-.512 3.585-1.593 3.585-2.85 0-1.749-2.834-3.167-6.332-3.167s-6.334 1.418-6.334 3.167c0 1.256 1.466 2.338 3.586 2.85z"/><path d="m55.484 79.5h33.5v6h-33.5z"/></g></svg>

<svg height="124" width="100" xmlns="http://www.w3.org/2000/svg"><path d="M49.986 72.128H1.873c0 26.586 21.502 49.822 48.088 49.822l.025-.001z" fill="#d50b2b" stroke="#000" stroke-width="2"/><path d="M49.986 1.915H98.1v70.213c0 26.586-21.502 49.822-48.088 49.822l-.025-.001V1.915z" fill="#02739f"/><path d="M1.873 1.915h48.114v36.879H1.873z" fill="#d50b2b"/><path d="M1.873 38.794h48.114v33.333H1.873z" fill="#fff" stroke="#000" stroke-width="2"/><path d="M1.873 1.915H98.1v70.213c0 26.586-21.553 49.822-48.139 49.822S1.873 98.714 1.873 72.128zM49.986 1.915V121.95" fill="none" stroke="#000" stroke-width="2"/><g fill="#f5c801" stroke="#272525"><path d="M55.484 85.5h33.5v10h-33.5zM55.484 69.5h33.5v10h-33.5zM69.486 12.35V69.5h5.495V12.35c2.12-.512 3.585-1.593 3.585-2.85 0-1.749-2.834-3.167-6.332-3.167S65.9 7.751 65.9 9.5c0 1.256 1.466 2.338 3.586 2.85zM55.484 79.5h33.5v6h-33.5z"/></g></svg>
